X: 114206
T: MISS HAY
Q: "Reel."
R:  Reel.
%R: reel
B: James Kerr "Merry Melodies" v.1 p.14 s.2 #6
Z: 2017 John Chambers <jc:trillian.mit.edu>
M: C
L: 1/8
K: D
uA |\
d2fd e2ge | fafd cecA |\
d2fd e2ge | faAc d2-d :|\
uA |\
D2(FD) AFdB | AFED CECA, |
D2(FD) AFdB | AFGE D2-DA |\
D2(FD) AFdB | AFED CECA, |\
D2(FD) AFdA | Bgec d2-d |]\
{D}"_Fine."D4 ||

% %newpage
%%sep 1 1 500
%%sep 1 1 500
%%center Set. 24th

%%sep 1 1 500
%%sep 1 1 500

